images/ideas-icon.svg

<svg width="16" height="16" viewBox="0 0 16 16" fill="none" xmlns="http://www.w3.org/2000/svg">
<g id="icon / sidebar / inactive / 3. ideas" clip-path="url(#clip0_1614_313)">
<path id="Vector" opacity="0.4" d="M5.50187 14.1984C5.50219 14.395 5.56031 14.5875 5.66937 14.7512L6.20344 15.5541C6.29467 15.6913 6.41841 15.8039 6.56366 15.8817C6.7089 15.9596 6.87114 16.0003 7.03594 16.0003H8.96438C9.12917 16.0003 9.29141 15.9596 9.43665 15.8817C9.5819 15.8039 9.70564 15.6913 9.79688 15.5541L10.3309 14.7512C10.44 14.5875 10.4982 14.3952 10.4984 14.1984L10.4997 13H5.50031L5.50187 14.1984ZM2.5 5.5C2.5 6.88656 3.01406 8.15156 3.86125 9.11812C4.3775 9.70718 5.185 10.9378 5.49281 11.9759C5.49406 11.9841 5.495 11.9922 5.49625 12.0003H10.5037C10.505 11.9922 10.5059 11.9844 10.5072 11.9759C10.815 10.9378 11.6225 9.70718 12.1388 9.11812C12.9859 8.15156 13.5 6.88656 13.5 5.5C13.5 2.45656 11.0284 -0.00937887 7.98281 -3.87451e-06C4.795 0.00968363 2.5 2.59281 2.5 5.5ZM8 3C6.62156 3 5.5 4.12156 5.5 5.5C5.5 5.77625 5.27625 6 5 6C4.72375 6 4.5 5.77625 4.5 5.5C4.5 3.57 6.07 2 8 2C8.27625 2 8.5 2.22375 8.5 2.5C8.5 2.77625 8.27625 3 8 3Z" fill="#9FA2B4"/>
</g>
<defs>
<clipPath id="clip0_1614_313">
<rect width="16" height="16" fill="white"/>
</clipPath>
</defs>
</svg>

<svg xmlns="http://www.w3.org/2000/svg" width="16" height="16" fill="none"><g clip-path="url(#a)"><path fill="#9FA2B4" d="M5.502 14.198a1 1 0 0 0 .167.553l.534.803a1 1 0 0 0 .833.446h1.928a1 1 0 0 0 .833-.446l.534-.803a.998.998 0 0 0 .167-.553L10.5 13h-5l.002 1.198ZM2.5 5.5a5.47 5.47 0 0 0 1.361 3.618c.517.59 1.324 1.82 1.632 2.858l.003.024h5.008l.003-.024c.308-1.038 1.116-2.269 1.632-2.858A5.5 5.5 0 0 0 7.983 0C4.795.01 2.5 2.593 2.5 5.5ZM8 3a2.503 2.503 0 0 0-2.5 2.5.5.5 0 1 1-1 0C4.5 3.57 6.07 2 8 2a.5.5 0 1 1 0 1Z" opacity=".4"/></g><defs><clipPath id="a"><path fill="#fff" d="M0 0h16v16H0z"/></clipPath></defs></svg>
